resources/svg/message-3-fill.svg

<svg fill="currentColor" viewBox="0 0 24 24" xmlns="http://www.w3.org/2000/svg"><path d="M2 8.99374C2 5.68349 4.67654 3 8.00066 3H15.9993C19.3134 3 22 5.69478 22 8.99374V21H8.00066C4.68659 21 2 18.3052 2 15.0063V8.99374ZM14 11V13H16V11H14ZM8 11V13H10V11H8Z"/></svg>

<svg xmlns="http://www.w3.org/2000/svg" viewBox="0 0 24 24" fill="currentColor">
    <g>
        <path fill="none" d="M0 0h24v24H0z"/>
        <path d="M2 8.994A5.99 5.99 0 0 1 8 3h8c3.313 0 6 2.695 6 5.994V21H8c-3.313 0-6-2.695-6-5.994V8.994zM14 11v2h2v-2h-2zm-6 0v2h2v-2H8z"/>
    </g>
</svg>
